X:1
T:[ID 2-81]
T:[ID 2-81]
T:Bezeichnung standardisiert: Polonaise Polonoise
T:Urheber unbekannt Datum in der hier transkribierten schriftlichen Quelle: 1767
C:Urheber unbekannt
C:Datum in der hier transkribierten schriftlichen Quelle: 1767
L:1/8
M:3/4
K:A
V:1 treble 
V:1
 A/c/e/A/ a2 AB | A6 | Ad d/c/d/B/ c2 | A/c/e/A/ aA/B/ A2 | E B2 A2 G | A c2 B2 A | G B2 A2 G | %7
"^O)" [Ac]/[Ac]/[Ac]/[Ac]/ [Ac]/[Ac]/[Ac]/[Ac]/ [Ac]/[Ac]/[Ac]/[Ac]/ | %8
 [GB]/[GB]/[GB]/[GB]/ [GB]/[GB]/[GB]/[GB]/ [GB]/[GB]/[GB]/[GB]/ | %9
"^O)" [Ac]/[Ac]/[Ac]/[Ac]/ [Ac]/[Ac]/[Ac]/[Ac]/ [Ac]/[Ac]/[Ac]/[Ac]/ | %10
 [GB]/[GB]/[GB]/[GB]/ [GB]/[GB]/[GB]/[GB]/ [GB]/[GB]/[GB]/[GB]/ | ce/c/ A2 B2 | ce/c/ A2 B2 | %13
 AE/D/ D2 C2 :: c'aaa a/b/c'/a/ | bggg g/a/b/g/ | ff/g/ agfe | ^d/e/f/d/ B2 B2 | %18
"^O)" [eg]/[eg]/[eg]/[eg]/ [eg]/[eg]/[eg]/[eg]/ [eg]/[eg]/[eg]/[eg]/ | %19
 [df]/[df]/[df]/[df]/ [df]/[df]/[df]/[df]/ [df]/[df]/[df]/[df]/ | %20
"^O)" [eg]/[eg]/[eg]/[eg]/ [eg]/[eg]/[eg]/[eg]/ [eg]/[eg]/[eg]/[eg]/ | %21
 [df]/[df]/[df]/[df]/ [df]/[df]/[df]/[df]/ [df]/[df]/[df]/[df]/ | eB/A/ G2 B2 | %23
 eB/A/ A2 G2!D.C.! :| %24

